X: 16349
T: Gullane, The
R: polka
M: 2/4
K: Amajor
|:c|ea f>e|Ac cB/A/|GB dc/d/|fe c/B/c/d/|
ea f>e|Ac cB/A/|G/A/B/G/ g/f/e|A2- A:|
|:(3G/A/B/|c2 dc/d/|fe cA|ef/e/ dB|fe c2|
c^B/c/ d2|f/g/f/e/ c>d|ef/e/ dG|BA A:|

